src/images/single-assets/msUSD.svg

<svg width="40" height="40" viewBox="0 0 40 40" fill="none" xmlns="http://www.w3.org/2000/svg">
<g clip-path="url(#clip0_1515_121176)">
<path d="M20.0001 40C23.9557 40 27.8225 38.827 31.1115 36.6294C34.4005 34.4318 36.9639 31.3082 38.4777 27.6537C39.9914 23.9992 40.3875 19.9778 39.6158 16.0982C38.8441 12.2186 36.9393 8.65492 34.1422 5.85787C31.3452 3.06082 27.7815 1.15601 23.9019 0.384303C20.0222 -0.387401 16.0009 0.0086656 12.3464 1.52242C8.69187 3.03617 5.5683 5.59962 3.37067 8.8886C1.17304 12.1776 6.05508e-05 16.0444 6.05508e-05 20C-0.00641449 22.6283 0.506481 25.2319 1.50928 27.6613C2.51208 30.0908 3.98502 32.2981 5.84349 34.1566C7.70195 36.015 9.9093 37.488 12.3387 38.4908C14.7682 39.4936 17.3718 40.0065 20.0001 40V40Z" fill="url(#paint0_linear_1515_121176)"/>
<path d="M25.4999 23.1674C25.4999 20.2583 23.7508 19.2492 20.2508 18.8329C17.749 18.5002 17.2508 17.8329 17.2508 16.6674C17.2508 15.502 18.0835 14.7492 19.749 14.7492C21.2508 14.7492 22.0835 15.2492 22.4999 16.5002C22.5446 16.6207 22.6252 16.7245 22.7309 16.7977C22.8366 16.8709 22.9622 16.9098 23.0908 16.9092H24.4235C24.5007 16.9112 24.5775 16.8975 24.6492 16.8689C24.7209 16.8403 24.7861 16.7974 24.8407 16.7428C24.8953 16.6882 24.9382 16.623 24.9668 16.5513C24.9954 16.4796 25.0091 16.4028 25.0072 16.3256V16.2438C24.8461 15.3406 24.3913 14.5158 23.7134 13.8977C23.0354 13.2796 22.1723 12.9027 21.2581 12.8256V10.8256C21.2581 10.4929 21.0072 10.2438 20.5908 10.1602H19.3399C19.0072 10.1602 18.7581 10.4092 18.6744 10.8256V12.7492C16.1672 13.0911 14.5835 14.7492 14.5835 16.8329C14.5835 19.5838 16.2508 20.6674 19.7508 21.0838C22.0835 21.5002 22.8417 21.9929 22.8417 23.3329C22.8417 24.6729 21.6762 25.5838 20.0926 25.5838C17.9253 25.5838 17.1835 24.6747 16.9253 23.4165C16.9015 23.276 16.8292 23.1482 16.7208 23.0555C16.6125 22.9628 16.4752 22.9111 16.3326 22.9092H14.909C14.8319 22.9075 14.7552 22.9214 14.6836 22.9501C14.612 22.9788 14.547 23.0218 14.4924 23.0763C14.4379 23.1309 14.3949 23.1959 14.3662 23.2675C14.3375 23.3391 14.3236 23.4158 14.3253 23.4929V23.5765C14.6599 25.6601 15.9926 27.1601 18.7435 27.5765V29.5765C18.7435 29.9092 18.9926 30.1601 19.409 30.2438H20.6599C20.9926 30.2438 21.2435 29.9929 21.3253 29.5765V27.5765C23.8253 27.1601 25.4926 25.4092 25.4926 23.1602L25.4999 23.1674Z" fill="white"/>
</g>
<defs>
<linearGradient id="paint0_linear_1515_121176" x1="0" y1="0" x2="40.0001" y2="40.0001" gradientUnits="userSpaceOnUse">
<stop stop-color="#596AEC"/>
<stop offset="1" stop-color="#60E2E9"/>
</linearGradient>
<clipPath id="clip0_1515_121176">
<rect width="40" height="40" fill="white"/>
</clipPath>
</defs>
</svg>

<svg xmlns="http://www.w3.org/2000/svg" width="40" height="40" fill="none"><g clip-path="url(#a)"><path fill="url(#b)" d="M20 40A20 20 0 1 0 0 20a19.95 19.95 0 0 0 20 20"/><path fill="#fff" d="M25.5 23.167c0-2.909-1.75-3.918-5.25-4.334-2.501-.333-3-1-3-2.166s.834-1.918 2.499-1.918c1.502 0 2.335.5 2.75 1.751a.63.63 0 0 0 .592.41h1.332a.57.57 0 0 0 .584-.584v-.082a4.165 4.165 0 0 0-3.749-3.418v-2c0-.333-.25-.582-.667-.666H19.34c-.333 0-.582.25-.666.666v1.923c-2.507.342-4.09 2-4.09 4.084 0 2.75 1.667 3.834 5.167 4.25 2.332.417 3.09.91 3.09 2.25s-1.165 2.25-2.748 2.25c-2.168 0-2.91-.908-3.168-2.166a.61.61 0 0 0-.592-.508h-1.424a.57.57 0 0 0-.584.584v.084c.335 2.083 1.668 3.583 4.419 4v2c0 .332.249.583.665.667h1.25c.334 0 .585-.251.666-.668v-2c2.5-.416 4.168-2.167 4.168-4.416z"/></g><defs><linearGradient id="b" x1="0" x2="40" y1="0" y2="40" gradientUnits="userSpaceOnUse"><stop stop-color="#596AEC"/><stop offset="1" stop-color="#60E2E9"/></linearGradient><clipPath id="a"><path fill="#fff" d="M0 0h40v40H0z"/></clipPath></defs></svg>
